Sources/FrostedUI/Resources/Icons.xcassets/messageSlashed16.imageset/message-slashed-16.svg

<svg width="16" height="16" viewBox="0 0 16 16" fill="none" xmlns="http://www.w3.org/2000/svg" data-fui-icon="true">
  <path
    d="M14.2197 0.719788C14.5126 0.426894 14.9874 0.426895 15.2803 0.719788C15.5731 1.01269 15.5731 1.48746 15.2803 1.78033L14.4883 2.57135C14.7563 2.92032 14.917 3.35719 14.917 3.83405V10.834C14.917 11.9846 13.9838 12.917 12.833 12.9171H10.2803L8.9043 14.0567L8.90332 14.0557C8.37725 14.4927 7.61395 14.4913 7.09082 14.0518L5.7373 12.9171H4.14355L1.78027 15.2803C1.4874 15.5732 1.01262 15.5732 0.719727 15.2803C0.426834 14.9874 0.426833 14.5127 0.719727 14.2198L14.2197 0.719788ZM5.64355 11.4171H5.76758C6.09876 11.4171 6.42201 11.5334 6.67773 11.7481L8 12.8565L9.34668 11.7422L9.34766 11.7413C9.60191 11.5316 9.92074 11.4171 10.251 11.4171H12.833C13.1561 11.417 13.417 11.1554 13.417 10.834V3.83405C13.417 3.77647 13.4075 3.72086 13.3916 3.66803L5.64355 11.4171ZM5.99512 12.5616L6.09668 12.4415L6.33301 12.1592L5.99512 12.5616ZM10.25 3.25006H3.16699C2.84385 3.25007 2.58301 3.51165 2.58301 3.83307V10.3126C2.58298 10.7267 2.24718 11.0625 1.83301 11.0626C1.41881 11.0626 1.08304 10.7267 1.08301 10.3126V3.83307C1.08301 2.68249 2.01615 1.75007 3.16699 1.75006H10.25V3.25006Z"
    fill="currentColor"
  />
</svg>

<svg xmlns="http://www.w3.org/2000/svg" width="16" height="16" fill="none" data-fui-icon="true" viewBox="0 0 16 16"><path fill="currentColor" d="M14.22.72a.75.75 0 1 1 1.06 1.06l-.792.791c.268.35.429.786.429 1.263v7c0 1.15-.933 2.083-2.084 2.083H10.28l-1.376 1.14v-.001a1.414 1.414 0 0 1-1.813-.004l-1.354-1.135H4.144L1.78 15.28a.75.75 0 1 1-1.06-1.06zM5.644 11.417h.124c.33 0 .654.116.91.331L8 12.857l1.347-1.115c.255-.21.574-.325.904-.325h2.582a.584.584 0 0 0 .584-.583v-7a.6.6 0 0 0-.025-.166zm.351 1.145.102-.12.236-.283zM10.25 3.25H3.167a.583.583 0 0 0-.584.583v6.48a.75.75 0 0 1-1.5 0v-6.48c0-1.15.933-2.083 2.084-2.083h7.083z"/></svg>
